assets/images/distributions/osx.svg

<svg xmlns="http://www.w3.org/2000/svg" preserveAspectRatio="xMidYMid" width="82" height="30" viewBox="0 0 82 30"><defs><style>.cls-3{fill:#000}.cls-4{fill:#6f7173}</style></defs><g id="logo-osxsvg"><path d="M81.872 24.672h-2.424l-2.064-3.576c-.84-1.369-1.368-2.256-1.872-3.193h-.048c-.457.937-.912 1.8-1.752 3.217l-1.944 3.552h-2.401l4.945-8.185-4.753-7.993h2.425l2.136 3.793c.6 1.056 1.056 1.872 1.488 2.736h.072c.456-.96.864-1.704 1.464-2.736l2.208-3.793h2.4l-4.92 7.873 5.04 8.305zm-19.224-4.416c0 2.496-1.848 4.656-5.664 4.656-1.56 0-3.265-.456-4.129-1.032l.528-1.752a7.406 7.406 0 0 0 3.745 1.056c2.136 0 3.384-1.128 3.384-2.76 0-1.513-.864-2.377-3.048-3.217-2.641-.936-4.272-2.304-4.272-4.584 0-2.52 2.088-4.392 5.232-4.392 1.656 0 2.856.383 3.576.792l-.576 1.704a6.442 6.442 0 0 0-3.072-.768c-2.208 0-3.048 1.32-3.048 2.424 0 1.512.984 2.256 3.216 3.12 2.736 1.056 4.128 2.376 4.128 4.753zm-19.2 4.68c-4.273 0-7.273-3.312-7.273-8.209 0-5.136 3.193-8.496 7.513-8.496 4.417 0 7.273 3.384 7.273 8.184 0 5.569-3.385 8.521-7.513 8.521zm.144-15.001c-3.456 0-5.184 3.192-5.184 6.744 0 3.457 1.871 6.553 5.16 6.553 3.312 0 5.184-3.049 5.184-6.721 0-3.216-1.68-6.576-5.16-6.576z" id="path-1" class="cls-3" fill-rule="evenodd"/><path d="M25.999 22.009c-.71 1.561-1.051 2.258-1.966 3.637-1.276 1.927-3.076 4.325-5.306 4.346-1.981.019-2.49-1.278-5.179-1.263-2.69.014-3.251 1.286-5.233 1.268-2.229-.021-3.936-2.187-5.212-4.113-3.571-5.386-3.945-11.707-1.742-15.067 1.565-2.388 4.033-3.786 6.355-3.786 2.364 0 3.849 1.284 5.804 1.284 1.895 0 3.05-1.286 5.783-1.286 2.065 0 4.253 1.114 5.813 3.041-5.11 2.775-4.279 10.006.883 11.939zM12.564 7.223c-.322-1.744.507-3.538 1.513-4.748C15.184 1.142 17.081.119 18.703.008c.274 1.823-.481 3.606-1.473 4.869-1.063 1.353-2.895 2.401-4.666 2.346z" id="path-2" class="cls-4" fill-rule="evenodd"/></g></svg>

<svg xmlns="http://www.w3.org/2000/svg" xmlns:xlink="http://www.w3.org/1999/xlink" preserveAspectRatio="xMidYMid" width="82" height="30" viewBox="0 0 82 30">
  <defs>
    <style>

      .cls-3 {
        fill: #000000;
      }

      .cls-4 {
        fill: #6f7173;
      }
    </style>
  </defs>
  <g id="logo-osxsvg">
    <path d="M81.872,24.672 C81.872,24.672 79.448,24.672 79.448,24.672 C79.448,24.672 77.384,21.096 77.384,21.096 C76.544,19.727 76.016,18.840 75.512,17.903 C75.512,17.903 75.464,17.903 75.464,17.903 C75.007,18.840 74.552,19.703 73.712,21.120 C73.712,21.120 71.768,24.672 71.768,24.672 C71.768,24.672 69.367,24.672 69.367,24.672 C69.367,24.672 74.312,16.487 74.312,16.487 C74.312,16.487 69.559,8.494 69.559,8.494 C69.559,8.494 71.984,8.494 71.984,8.494 C71.984,8.494 74.120,12.287 74.120,12.287 C74.720,13.343 75.176,14.159 75.608,15.023 C75.608,15.023 75.680,15.023 75.680,15.023 C76.136,14.063 76.544,13.319 77.144,12.287 C77.144,12.287 79.352,8.494 79.352,8.494 C79.352,8.494 81.752,8.494 81.752,8.494 C81.752,8.494 76.832,16.367 76.832,16.367 C76.832,16.367 81.872,24.672 81.872,24.672 ZM62.648,20.256 C62.648,22.752 60.800,24.912 56.984,24.912 C55.424,24.912 53.719,24.456 52.855,23.880 C52.855,23.880 53.383,22.128 53.383,22.128 C54.320,22.704 55.688,23.184 57.128,23.184 C59.264,23.184 60.512,22.056 60.512,20.424 C60.512,18.911 59.648,18.047 57.464,17.207 C54.823,16.271 53.192,14.903 53.192,12.623 C53.192,10.103 55.280,8.231 58.424,8.231 C60.080,8.231 61.280,8.614 62.000,9.023 C62.000,9.023 61.424,10.727 61.424,10.727 C60.896,10.439 59.816,9.959 58.352,9.959 C56.144,9.959 55.304,11.279 55.304,12.383 C55.304,13.895 56.288,14.639 58.520,15.503 C61.256,16.559 62.648,17.879 62.648,20.256 ZM43.448,24.936 C39.175,24.936 36.175,21.624 36.175,16.727 C36.175,11.591 39.368,8.231 43.688,8.231 C48.105,8.231 50.961,11.615 50.961,16.415 C50.961,21.984 47.576,24.936 43.448,24.936 ZM43.592,9.935 C40.136,9.935 38.408,13.127 38.408,16.679 C38.408,20.136 40.279,23.232 43.568,23.232 C46.880,23.232 48.752,20.183 48.752,16.511 C48.752,13.295 47.072,9.935 43.592,9.935 Z" id="path-1" class="cls-3" fill-rule="evenodd"/>
    <path d="M25.999,22.009 C25.289,23.570 24.948,24.267 24.033,25.646 C22.757,27.573 20.957,29.971 18.727,29.992 C16.746,30.011 16.237,28.714 13.548,28.729 C10.858,28.743 10.297,30.015 8.315,29.997 C6.086,29.976 4.379,27.810 3.103,25.884 C-0.468,20.498 -0.842,14.177 1.361,10.817 C2.926,8.429 5.394,7.031 7.716,7.031 C10.080,7.031 11.565,8.315 13.520,8.315 C15.415,8.315 16.570,7.029 19.303,7.029 C21.368,7.029 23.556,8.143 25.116,10.070 C20.006,12.845 20.837,20.076 25.999,22.009 ZM12.564,7.223 C12.242,5.479 13.071,3.685 14.077,2.475 C15.184,1.142 17.081,0.119 18.703,0.008 C18.977,1.831 18.222,3.614 17.230,4.877 C16.167,6.230 14.335,7.278 12.564,7.223 Z" id="path-2" class="cls-4" fill-rule="evenodd"/>
  </g>
</svg>
